X: 491
T: A Yowe Came To Wir Door,Yarmin
R: jig
M: 6/8
K: Cmajor
EDE CDE|G2 E G2 E|EDE CDE|d2 c2 BG|A6:|
cdc B2 G|cdc B2 G|cd ef^ g2|d2 cBAG|A6:|

